Setup/v9/Assets/Themes/Kobe - Light/Export.svg

<svg width="20" height="20" viewBox="0 0 20 20" fill="none" xmlns="http://www.w3.org/2000/svg">
<path d="M1 13C1 11.8954 1.89543 11 3 11H13C16.3137 11 19 13.6863 19 17V17C19 18.1046 18.1046 19 17 19H3C1.89543 19 1 18.1046 1 17V13Z" fill="black" fill-opacity="0.1"/>
<path fill-rule="evenodd" clip-rule="evenodd" d="M15.0935 3.5C15.0935 3.10825 14.9809 2.74281 14.7862 2.43429C13.3709 3.45127 12.2795 4.46058 10.9 6.30001C9.48941 8.18076 8.99999 10.0586 8.99999 13.5C8.99999 13.7762 8.77614 14 8.49999 14C8.22385 14 7.99999 13.7762 7.99999 13.5C7.99999 9.94146 8.51054 7.81925 10.1 5.70001C11.4922 3.84368 12.6249 2.77439 14.0419 1.73873C13.7597 1.58644 13.4367 1.5 13.0935 1.5L10.158 1.5C9.88188 1.5 9.65802 1.27614 9.65802 1C9.65802 0.723858 9.88188 0.5 10.158 0.5H15.5935C15.8449 0.5 16.0529 0.685476 16.0882 0.92703C16.0917 0.950893 16.0935 0.975304 16.0935 1.00014L16.0935 6.42676C16.0935 6.7029 15.8697 6.92676 15.5935 6.92676C15.3174 6.92676 15.0935 6.7029 15.0935 6.42676L15.0935 3.5ZM2 12.5C2 12.2239 1.77614 12 1.5 12C1.22386 12 1 12.2239 1 12.5V16.8688C1 18.2495 2.11929 19.3688 3.5 19.3688H16.6731C18.0538 19.3688 19.1731 18.2495 19.1731 16.8688V15.8022C19.1731 15.526 18.9492 15.3022 18.6731 15.3022C18.3969 15.3022 18.1731 15.526 18.1731 15.8022V16.8688C18.1731 17.6972 17.5015 18.3688 16.6731 18.3688H3.5C2.67157 18.3688 2 17.6972 2 16.8688V12.5Z" fill="black"/>
</svg>

<svg xmlns="http://www.w3.org/2000/svg" width="20" height="20" fill="none"><path fill="#000" fill-opacity=".1" d="M1 13a2 2 0 0 1 2-2h10a6 6 0 0 1 6 6 2 2 0 0 1-2 2H3a2 2 0 0 1-2-2v-4Z"/><path fill="#000" fill-rule="evenodd" d="M15.094 3.5a1.99 1.99 0 0 0-.308-1.066C13.371 3.451 12.28 4.461 10.9 6.3 9.49 8.18 9 10.059 9 13.5a.5.5 0 1 1-1 0c0-3.559.51-5.68 2.1-7.8 1.392-1.856 2.525-2.926 3.942-3.961a1.991 1.991 0 0 0-.948-.239h-2.936a.5.5 0 0 1 0-1h5.436a.5.5 0 0 1 .5.5v5.427a.5.5 0 1 1-1 0V3.5ZM2 12.5a.5.5 0 0 0-1 0v4.369a2.5 2.5 0 0 0 2.5 2.5h13.173a2.5 2.5 0 0 0 2.5-2.5v-1.067a.5.5 0 1 0-1 0v1.067a1.5 1.5 0 0 1-1.5 1.5H3.5a1.5 1.5 0 0 1-1.5-1.5V12.5Z" clip-rule="evenodd"/></svg>
